X:1
T:It Had To Be You
T:It Had To Be You
T:Music by ISHAM JONES A.S.C.A.P. 
T:  Lyrics by GUS KAHN A.S.C.A.P. 
T:Copyright MCMXXIV by Jerome H. Remick &amp; Co., New York
T:Copyright MCMXXIV by Jerome H. Remick &amp; Co., New York
T:Copyright MCMXXIV by Jerome H. Remick &amp; Co., New York
T:Copyright MCMXXIV by Jerome H. Remick &amp; Co., New York
C:Isham Jones
Z:Gus Kahn
Z:Copyright MCMXXIV by Jerome H. Remick & Co., New York
%%score 1 { ( 2 4 ) | ( 3 5 ) }
L:1/8
Q:1/4=144
M:2/2
K:G
V:1 treble nm="Voice"
V:2 treble nm="Piano"
V:4 treble 
V:3 bass 
V:5 bass 
V:1
"^Moderate swing""^VOICE""^Allegro" z8 | z8 | z8 | z8 ||"G" d2 B2"G" d2 B2 |"G" d e d B- B4 | %6
w: ||||Why do I do|just as you say, _|
w: ||||Seems like dreams like|I al- ways had, _|
"C6" A2 G2"Cm6" A2 G2 |"G" A B A G-"Em" G4 |"A7" E G A B- B4 | E G A B- B"D7" d B2 | %10
w: why must I just|give you your way. _|Why do I sigh, _|why don't I try _ to for-|
w: could be, should be|mak- ing me glad. _|Why am I blue? _|it's up to you _ to ex-|
"G" G6"Cm6""D7" z2 |"G" z2 B2"D7" c2"Gdim" ^c2 |"G" d2 B2"G" d2 B2 |"G7" d e d B- B4 | %14
w: get?|It must have|been that some- thing|lov- ers call fate, _|
w: plain.|I think- ing|may- be, ba- by,|I'll go a- way, _|
"C6" A2 G2"Cm6" A2 G2 |"G" A B A G-"E" G4 |"A7" E G A B- B4 | E G A B- B e B2 |"D7""Eb7b5" A8- | %19
w: kept on say- ing|I had to wait, _|I saw them all, _|just could- n't fall _ 'til we|met.|
w: some day, some way|you'll come and say, _|"It's you I need, _|and you'll be plead- * ing in|vain.|
"D7" A2 ||[M:2/2]"^REFRAIN" D2"D+" E D E F- |:"G""D+" F8- |"G" F2 F2 G F G ^G- |"E7" G8- | %24
w: _|IT HAD TO BE YOU,|_|* IT HAD TO BE YOU,|_|
w: _|||||
 G2 ^G2 A G A B- |"A7" B3 =G A ^G A B- | B3 =G A ^G A B- | B8- | B2 A2 B A B d- |"D7" d8- | %30
w: * I wan- dered a- round|_ and fin- al- ly found|_ the some- bod- y who|_|* Could make me be true,|_|
w: ||||||
 d2 B2"D#dim" A B A G- |"Em" G8- | G2 G2 G F G A- |"A7" A4 G F G A- | A4 B e B A- | %35
w: * could make me be blue|_|* And e- ven be glad,|_ just to be sad,|_ think- ing of you|
w: |||||
"D7""Eb7b5" A8- |"D7" A2 D2"D+" E D E F- |"G""D+" F8- |"G" F2 F2 G F G ^G- |"E7" G8- | %40
w: _|* Some oth- ers I've seen|_|* might nev- er be mean|_|
w: |||||
 G2 ^G2 A G A B- |"A7" B3 =G A ^G A B- | B3 =G A ^G A B- | B8- | B2 B2"E" B c d e- | %45
w: * Might nev- er be cross|_ or try to be boss,|_ but they would- n't do,|_|* for no- bo- dy else|
w: |||||
"Am" e4"Am7" E F G A- |"Adim" A4"D7" A B c d- |"G" d4"B7" A B A G- |"Em" G2"Gdim" F2 E D E F- | %49
w: _ gave me a thrill,|_ with all your faults|_ I love you still,|_ IT HAD TO BE YOU,|
w: ||||
"D7" F4"Gdim" E D E F- |"D7" F4 B d B G- |1"G""Gdim" G6"Cm6" z2 |"D7" z2"D+" D2 E D E F :|2 %53
w: _ won- der- ful you,|_ HAD TO BE YOU.|_|IT HAD TO BE YOU,\_|
w: ||||
"G" G8- |"Cm6""G6" G6 z2 |] %55
w: \|_|
w: ||
V:2
 [DGd]2 [DGd]2 [EG^c]2 !>![EGc][_EG=c]- | [EGc]2 !>![_EGc]([CF^A]- A2 B2) | %2
 [Gd]2 !>![Gd][G_e]- [Ge]2 !>![Ge][G=e]- | [Ge]2 !>![Ge]([F_e]- e2 d2) || (d2 B2 d2 B2 | %5
 dedB- B4) | (A2 G2 A2 G2 | ABAG- G4) | (EGAB- B4) | (EGAB- Bd B2 | %10
 [B,DG]2) !>![DGd][_EGc]- [EGc]2 !>![CF_B][=B,DG]- | [B,DG]2 ([DGB]2 [DFc]2 [EG^c]2 | %12
 (d2) B2 d2 B2 | dedB- B4) | (A2 G2 A2 G2 | ABAG- G4) | (EGAB- B4) | (EGAB- Be B2 | A8- | A2) || %20
[M:2/2] (D2 EDEF- |: F8- | F2) (F2 GFG^G- | G8- | G2) ([E^G]2 [FA][EG][FA][=GB]- | %25
 [GB]3) (=G A^GA[=GB]- | [GB]3) (=G A^GA[=GB]- | B8- | B2) A2 BABd- | d8- | d2 (B2 ABAG- | G8- | %32
 G2) G2 (GFGA- | A4) (GFGA- | A4) (BeBA- | A8- | A2) (D2 EDEF- | F8- | F2) (F2 GFG^G- | G8- | %40
 G2) ([E^G]2 [FA][EG][FA][=GB]- | [GB]3) (=G A^GA[=GB]- | [GB]3) (=G A^GA[=GB]- | B8- | %44
 B2) [GB]2 ([GB][A=c][Bd][ce]- | [ce]4) EFGA- | A4 [FA][GB][Ac][Bd]- | [Bd]4 ABAG- | G2 (F2 EDEF- | %49
 F4) (EDEF- | F4) (BdBG- |1 [B,DG]2) !>![DGd][EG^c]- [EGc]2 !>![_EG=c][CFA]- | %52
 [CFA]2 (D2 ED(((EF)))) :|2 (((([B,DG]2 !>![EGd]))))[GA_e]- [GAe]2 !>![GAe][GB=e]- | [GBe]6 z2 |] %55
V:3
"^PIANO" B,2 B,2 _B,2 !>!B,A,- | A,2 !>!A,D,- D,4 | %2
 [B,D]2 !>![B,D][_B,^C]- [B,C]2 !>![B,C][A,=C]- | [A,C]2 !>![A,C][D,C]- [D,C]4 || %4
 !arpeggio![G,,D,B,]2 z2 [D,,D,]2 z2 | !arpeggio![G,,D,B,]2 z2 G,,2 z2 | [C,,C,]2 z2 [C,,C,]2 z2 | %7
 [B,,,B,,]2 z2 [E,,E,]2 z2 | G,4- G,(^D,E,F,) | [A,,G,]3 [D,F,]- [D,F,]4 | %10
 [G,,G,]2 !>!B,A,- A,2 !>!D,G,,- | G,,2 (G,2 A,2 ^A,2) | !arpeggio![G,,D,B,]2 z2 [D,,D,]2 z2 | %13
 [G,,D,B,]2 z2 G,,2 z2 | [C,,C,]2 z2 [C,,C,]2 z2 | [B,,,B,,]2 z2 [E,,E,]2 z2 | G,4- G,(^D,E,F,) | %17
 [A,,G,]8 | [D,F,]2 !>![D,F,][_E,G,]- [E,G,]2 !>![E,G,][=D,^F,]- | [D,F,]2 ||[M:2/2] z2 [D,,D,]4 |: %21
 [G,,D,]2 z2 [D,,D,]2 z2 | [G,,D,]2 z2 [D,,D,]2 z2 | [E,,E,]2 z2 [E,,E,]2 z2 | [E,,E,]2 z2 E,2 z2 | %25
 A,,2{/^D,} !>!E,6 | A,,2{/^D,} !>!E,6 | z2 B,A,- A,2 ^G,=G,- | G,2 z2 A,4 | [D,=C]8- | %30
 [D,C]2 z2 [^D,,^D,]4 | [E,,E,]2 z2 [B,,,B,,]2 z2 | [E,,E,]2 z2 E,4 | A,,2{/^D,} !>!E,6 | %34
 A,,2{/^D,} !>!E,6 | D, !>![D,F,]2 !>![_E,G,]- [E,G,]2 !>![E,G,][=D,^F,]- | [D,F,]2 z2 [D,,D,]4 | %37
 [G,,D,]2 z2 [D,,D,]2 z2 | [G,,D,]2 z2 [D,,D,]2 z2 | [E,,E,]2 z2 [E,,E,]2 z2 | [E,,E,]2 z2 E,2 z2 | %41
 A,,2{/^D,} !>!E,6 | A,,2{/^D,} !>!E,6 | z2 B,A,- A,2 ^G,=G,- | G,2 z2 z4 | %45
 [A,,A,]2 z2 (([G,,G,]4 | [F,,F,]2)) z2 [D,C]4 | [G,,G,]2 z2 (([F,,F,]4 | %48
 [E,,E,]2)) z2 ([_B,,G,]4 | [A,,A,]2) !tenuto!D,2 ([_B,,G,]4 | [A,,A,]2) !tenuto!D,2 [D,,D,]4 |1 %51
 [G,,G,]2 !>!B,_B,- B,2 !>!A,D,- | D,2 z2 [D,,D,]4 :|2 [G,,G,]2 !>!B,C- C2 !>!CD- | D6 z2 |] %55
V:4
 x8 | x4 [CF]4 | x8 | x4 F4 || G4 F4 | =F4- F(AGF) | E4 _E4 | D4- D(FED) | ^C8 | ^C3 [=CE]- [CE]4 | %10
 x8 | x8 | G4 F4 | =F4- F(AGF) | E4 _E4 | D4- D(FED) | ^C8 | ^C8 | %18
 [=CE]2 !>![CE][_D=F]- [DF]2 !>![DF][C=E]- | [CE]2 ||[M:2/2] z2 [F,^A,]3 [G,B,]- |: %21
 [G,B,]>G,B,>D ^A,>F,A,B,- | B,2 [B,D]2 [B,D]3 [B,D]- | %23
 [B,D]>^G, [DF][^CE]- [CE]>G, [=C^D][B,=D]- | [B,D]2 D2 D3 ^C- | C4 ^C3 C- | C4 ^C3 C- | %27
 [CG]>^C GF- F>C =FE- | E2 z2 [^CG]3 [D^F]- | [DF]>D F[EG]- [EG]>D [=F^G][^FA]- | %30
 [FA]2 [DF]2 [CF]3 [B,E]- | [B,E]>B, FE- E>B, FE- | E2 [B,E]2 [B,^D]2 [B,=D][^CG]- | %33
 [CG]4 ^C3 [CG]- | [CG]4 [^CG]3 [=CF]- | [CF] !>![CE]2 !>![_D=F]- [DF]2 !>![DF][C=E]- | %36
 [CE]2 z2 [F,^A,]3 [G,B,]- | [G,B,]>G,B,>D ^A,>F, A,B,- | B,2 [B,D]2 [B,D]3 [B,D]- | %39
 [B,D]>^G, [DF][^CE]- [CE]>G, [=C^D][B,=D]- | [B,D]2 D2 D3 ^C- | C4 ^C3 C- | C4 ^C3 C- | %43
 [CG]>^C GF- F>C =FE- | E2 z2 z4 | z2 E2 [CE]3 [C_E]- | [CE]2 [C_E]2 z4 | z2 D2 [B,^D]3 [B,E]- | %48
 [B,E]2 =D2 ^C3 =C- | C4 ^C3 =C- | C4 [CF]3 [B,D]- |1 x8 | x2 z2 [F,^A,]3 [G,B,] :|2 x8 | x8 |] %55
V:5
 x8 | x8 | x8 | x8 || x8 | x8 | x8 | x8 | A,,8 | x8 | x8 | x8 | x8 | x8 | x8 | x8 | A,,8 | x8 | %18
 x8 | x2 ||[M:2/2] x6 |: x8 | x8 | x8 | x8 | x8 | x8 | A,,8- | A,,2 x2 x4 | x8 | x8 | x8 | x8 | %33
 x8 | x8 | x8 | x8 | x8 | x8 | x8 | x8 | x8 | x8 | A,,8- | A,,2 x2 x4 | x8 | x8 | x8 | x8 | x8 | %50
 x8 |1 x8 | x8 :|2 x8 | z2 !>!D,G,,- G,,2 x2 |] %55

